X: 2
T: The Rakes Of Clonmel
R: jig
M: 6/8
L: 1/8
K: Amin
cBA GED|EAA A2B|cBc edc|BGG GAB|cBc dcd|edc Bcd|ecA GED|EAA A2B:|a|:aea aed|cBc ABc|g^fg gdc|BGG GAB|cBc dcd|edc Bcd|ecA GED|EAA A2a:|


Tune 1130	Setting 14396

